out/images/letterIcon.svg

<svg fill="none" height="64" viewBox="0 0 32 32" width="64" xmlns="http://www.w3.org/2000/svg" xmlns:xlink="http://www.w3.org/1999/xlink"><clipPath id="a"><path d="m0 0h32v32h-32z"/></clipPath><g clip-path="url(#a)"><path d="m28.999 8.416 1.001.584c.562.328 1 .447 1 1v20c0 .553-.447 1-1 1h-28c-.553 0-1-.447-1-1v-20c0-.336.359-.625 1-1l.981-.622m1.019 3.622 11 11c.834.834 1.167.833 2 0l11-11m-18.5 10.5-5.5 5.5m24 0-5.5-5.5m-16.5-8.5v-12c0-.553.447-1 1-1h18c.553 0 1 .447 1 1v12m-15-6h10m-10 4h10" stroke="#d33834" stroke-linecap="round" stroke-linejoin="round" stroke-width="2"/></g></svg>

<!DOCTYPE svg PUBLIC "-//W3C//DTD SVG 1.1//EN" "http://www.w3.org/Graphics/SVG/1.1/DTD/svg11.dtd">
<!-- Uploaded to: SVG Repo, www.svgrepo.com, Transformed by: SVG Repo Mixer Tools -->
<svg width="64px" height="64px" viewBox="0 0 32 32" fill="none" xmlns="http://www.w3.org/2000/svg">
<g id="SVGRepo_bgCarrier" stroke-width="0"/>
<g id="SVGRepo_tracerCarrier" stroke-linecap="round" stroke-linejoin="round"/>
<g id="SVGRepo_iconCarrier"> <g clip-path="url(#clip0_901_2559)"> <path d="M28.999 8.416L30 9C30.562 9.328 31 9.447 31 10V30C31 30.553 30.553 31 30 31H2C1.447 31 1 30.553 1 30V10C1 9.664 1.359 9.375 2 9L2.981 8.378M4 12L15 23C15.834 23.834 16.167 23.833 17 23L28 12M9.5 22.5L4 28M28 28L22.5 22.5M6 14V2C6 1.447 6.447 1 7 1H25C25.553 1 26 1.447 26 2V14M11 8H21M11 12H21" stroke="#D33834" stroke-width="2" stroke-linecap="round" stroke-linejoin="round"/> </g> <defs> <clipPath id="clip0_901_2559"> <rect width="32" height="32" fill="white"/> </clipPath> </defs> </g>
</svg>
